assets/svgs/extras/objects/Objects16.svg

<svg id="emoji" viewBox="0 0 72 72" xmlns="http://www.w3.org/2000/svg">
  <g id="color">
    <path fill="#fff" d="M38 54V41H55V50L38 54Z"/>
    <path fill="#A57939" d="M38 19H55V42H38V19Z"/>
    <g>
      <path fill="#6A462F" fill-rule="evenodd" d="M38 54.5V58C38 59.1046 38.8954 60 40 60H53C54.1046 60 55 59.1046 55 58V54.5V50.5L38 54.5Z" clip-rule="evenodd"/>
      <path fill="#6A462F" d="M38 54.5L37.771 53.5266C37.3192 53.6329 37 54.0359 37 54.5H38ZM55 50.5H56C56 50.1945 55.8604 49.9058 55.6209 49.7161C55.3814 49.5264 55.0683 49.4566 54.771 49.5266L55 50.5ZM39 58V54.5H37V58H39ZM40 59C39.4477 59 39 58.5523 39 58H37C37 59.6569 38.3431 61 40 61V59ZM53 59H40V61H53V59ZM54 58C54 58.5523 53.5523 59 53 59V61C54.6569 61 56 59.6569 56 58H54ZM54 54.5V58H56V54.5H54ZM54 50.5V54.5H56V50.5H54ZM38.229 55.4734L55.229 51.4734L54.771 49.5266L37.771 53.5266L38.229 55.4734Z"/>
      <path fill="#6A462F" d="M38 54.5L37.771 53.5266C37.3192 53.6329 37 54.0359 37 54.5H38ZM55 50.5H56C56 50.1945 55.8604 49.9058 55.6209 49.7161C55.3814 49.5264 55.0683 49.4566 54.771 49.5266L55 50.5ZM39 58V54.5H37V58H39ZM40 59C39.4477 59 39 58.5523 39 58H37C37 59.6569 38.3431 61 40 61V59ZM53 59H40V61H53V59ZM54 58C54 58.5523 53.5523 59 53 59V61C54.6569 61 56 59.6569 56 58H54ZM54 54.5V58H56V54.5H54ZM54 50.5V54.5H56V50.5H54ZM38.229 55.4734L55.229 51.4734L54.771 49.5266L37.771 53.5266L38.229 55.4734Z"/>
    </g>
    <path fill="#A57939" d="M22 13.5283C22 16.5557 19.7614 22 17 22C14.2386 22 12 16.5557 12 13.5283C12 10.5008 14.2386 11.0366 17 11.0366C19.7614 11.0366 22 10.5008 22 13.5283Z"/>
    <rect x="44" y="14" width="5" height="5" fill="#d0cfce"/>
  </g>
  <g id="line">
    <path fill="none" stroke="#000" stroke-linecap="round" stroke-linejoin="round" stroke-width="2" d="M41 53.7941L52 51.2059"/>
    <path fill="none" stroke="#000" stroke-width="2" d="M38 21C38 19.8954 38.8954 19 40 19H53C54.1046 19 55 19.8954 55 21V58C55 59.1046 54.1046 60 53 60H40C38.8954 60 38 59.1046 38 58V21Z"/>
    <rect x="44" y="14" width="5" height="5" fill="none" stroke="#000" stroke-linejoin="round" stroke-width="2"/>
    <path fill="none" stroke="#000" stroke-linejoin="round" stroke-width="2" d="M44 16H38L23 25H17V22"/>
    <path fill="none" stroke="#000" stroke-width="2" d="M22 13.5283C22 16.5557 19.7614 22 17 22C14.2386 22 12 16.5557 12 13.5283C12 10.5008 14.2386 11.0366 17 11.0366C19.7614 11.0366 22 10.5008 22 13.5283Z"/>
    <line x1="39" x2="52" y1="41" y2="41" stroke="#000" stroke-linecap="round" stroke-width="2"/>
  </g>
</svg>

<svg xmlns="http://www.w3.org/2000/svg" viewBox="0 0 72 72"><path fill="#fff" d="M38 54V41h17v9l-17 4z"/><path fill="#A57939" d="M38 19h17v23H38V19z"/><g fill="#6A462F"><path fill-rule="evenodd" d="M38 54.5V58a2 2 0 002 2h13a2 2 0 002-2v-7.5l-17 4z" clip-rule="evenodd"/><path d="M38 54.5l-.229-.973A1 1 0 0037 54.5h1zm17-4h1a1 1 0 00-1.229-.973L55 50.5zM39 58v-3.5h-2V58h2zm1 1a1 1 0 01-1-1h-2a3 3 0 003 3v-2zm13 0H40v2h13v-2zm1-1a1 1 0 01-1 1v2a3 3 0 003-3h-2zm0-3.5V58h2v-3.5h-2zm0-4v4h2v-4h-2zm-15.771 4.973l17-4-.458-1.946-17 4 .458 1.946z"/><path d="M38 54.5l-.229-.973A1 1 0 0037 54.5h1zm17-4h1a1 1 0 00-1.229-.973L55 50.5zM39 58v-3.5h-2V58h2zm1 1a1 1 0 01-1-1h-2a3 3 0 003 3v-2zm13 0H40v2h13v-2zm1-1a1 1 0 01-1 1v2a3 3 0 003-3h-2zm0-3.5V58h2v-3.5h-2zm0-4v4h2v-4h-2zm-15.771 4.973l17-4-.458-1.946-17 4 .458 1.946z"/></g><path fill="#A57939" d="M22 13.528C22 16.556 19.761 22 17 22s-5-5.444-5-8.472c0-3.027 2.239-2.491 5-2.491s5-.536 5 2.491z"/><path fill="#d0cfce" d="M44 14h5v5h-5z"/><g stroke="#000" stroke-width="2"><path fill="none" stroke-linecap="round" stroke-linejoin="round" d="M41 53.794l11-2.588"/><path fill="none" d="M38 21a2 2 0 012-2h13a2 2 0 012 2v37a2 2 0 01-2 2H40a2 2 0 01-2-2V21z"/><path fill="none" stroke-linejoin="round" d="M44 14h5v5h-5zM44 16h-6l-15 9h-6v-3"/><path fill="none" d="M22 13.528C22 16.556 19.761 22 17 22s-5-5.444-5-8.472c0-3.027 2.239-2.491 5-2.491s5-.536 5 2.491z"/><path stroke-linecap="round" d="M39 41h13"/></g></svg>
